X: 412
T: Wugen shapeng naliluo
%%abc-version 2.0
%%abcx-abcm2ps-target-version 5.9.1 (29 Sep 2008)
%%abc-creator hum2abc beta
%%abcx-conversion-date 2013/10/02 07:52:30
%%abc-edited-by Helmut Schaffrath
%%humdrum-veritas 748029609
%%humdrum-veritas-data 2759262714
%%continueall 1
%%barnumbers 0
L: 1/8
M: 2/4
K: D
B Ad2 [I:setbarnb 1]| 
fA2F/ F/ | 
E d B d | 
A4 | 
B Ad2 | 
fA2F/ F/ | 
E d B d | 
D4 |]  



